X: 39269
T: Tailor's Twist, The
R: hornpipe
M: 4/4
K: Dmajor
|:F>E|D>A,F>D A>Fd>A|B>ge>d c>ba>g|f>ed>c B>ge>d|(3cdc (3BcB A>GF>E|
D>AF>D A2 d>A|B>ge>d c>ba>g|f>ed>c B>ge>c|d2 d>c d2:|
|:f>g|a^gaf d2 (3f=ga|b>ag>f e>Ac>e|g>fg>e c2 (3def|(3gag (3fgf e2 (3gfe|
d2 e>c d>D (3FGA|(3BcB (3ged c>ba>g|f>ed>c B2 (3gec|1 (3ded c>e d>e:|2 d2 [A2d2] [D2d2]||

